icons/desktop/20/book-20.svg

<svg width="20" height="20" viewBox="0 0 20 20" fill="none" xmlns="http://www.w3.org/2000/svg">
<g clip-path="url(#clip0_8069_32782)">
<path d="M12.625 9.5C13.1082 9.5 13.5 9.89176 13.5 10.375C13.5 10.8582 13.1082 11.25 12.625 11.25H6.375C5.89175 11.25 5.5 10.8582 5.5 10.375C5.50002 9.89176 5.89176 9.5 6.375 9.5H12.625Z" fill="black"/>
<path d="M12.625 6C13.1082 6 13.5 6.39176 13.5 6.875C13.5 7.35825 13.1082 7.75 12.625 7.75H6.375C5.89175 7.75 5.5 7.35825 5.5 6.875C5.50002 6.39176 5.89176 6 6.375 6H12.625Z" fill="black"/>
<path fill-rule="evenodd" clip-rule="evenodd" d="M9.5 0.999023C11.0941 0.999023 12.9873 1.10048 15.0947 1.41895C16.6227 1.65016 17.7498 2.97341 17.75 4.5127V12.875C17.75 13.6794 17.4434 14.4101 16.9443 14.9639V17.543C16.9891 17.5342 17.0338 17.5265 17.0781 17.5176C17.5519 17.4226 18.0123 17.7294 18.1074 18.2031C18.2024 18.6769 17.8956 19.1383 17.4219 19.2334C15.652 19.5886 13.528 19.8877 11.1201 19.9756L10.0703 20C7.58423 20.0235 5.35844 19.8097 3.46094 19.5049C2.17148 19.298 1.25 18.1775 1.25 16.8936C1.25 16.8893 1.25096 16.8851 1.25098 16.8809C1.25092 16.877 1.25 16.8731 1.25 16.8691V4.50977C1.25013 2.94461 2.40201 1.64513 3.93164 1.41504C5.56341 1.17039 7.43482 0.999023 9.5 0.999023ZM15.1943 15.9463C15.0096 15.9803 14.8196 16 14.625 16H3.89355C3.40016 16.0002 3.00025 16.4002 3 16.8936C3 17.3394 3.31904 17.71 3.73926 17.7773C5.55165 18.0685 7.67802 18.2725 10.0537 18.25L11.0557 18.2266C12.5569 18.1718 13.9426 18.0301 15.1943 17.8447V15.9463ZM9.5 2.74902C7.53131 2.74902 5.74757 2.9112 4.19141 3.14453C3.49965 3.24877 3.00013 3.82944 3 4.50977V14.4082C3.27939 14.3077 3.57957 14.2501 3.89355 14.25H14.625C15.3848 14.25 16 13.6348 16 12.875V4.5127C15.9998 3.83226 15.4989 3.25017 14.833 3.14941C12.8245 2.84591 11.0199 2.74902 9.5 2.74902Z" fill="black"/>
</g>
<defs>
<clipPath id="clip0_8069_32782">
<rect width="20" height="20" fill="white"/>
</clipPath>
</defs>
</svg>

<!-- This Source Code Form is subject to the terms of the Mozilla Public
   - License, v. 2.0. If a copy of the MPL was not distributed with this
   - file, You can obtain one at http://mozilla.org/MPL/2.0/. -->
<svg xmlns="http://www.w3.org/2000/svg" width="20" height="20" fill="context-fill" fill-opacity="context-fill-opacity" viewBox="0 0 20 20">
    <g clip-path="url(#clip0_8069_32782)">
        <path d="M12.625 9.5a.875.875 0 0 1 0 1.75h-6.25a.875.875 0 0 1 0-1.75zM12.625 6a.875.875 0 0 1 0 1.75h-6.25a.875.875 0 1 1 0-1.75z" />
        <path fill-rule="evenodd" d="M9.5.999c1.594 0 3.487.101 5.595.42a3.13 3.13 0 0 1 2.655 3.094v8.362a3.1 3.1 0 0 1-.806 2.089v2.579l.134-.025a.874.874 0 1 1 .344 1.715c-1.77.356-3.894.655-6.302.743L10.07 20a39.3 39.3 0 0 1-6.61-.495 2.64 2.64 0 0 1-2.21-2.611l.001-.013-.001-.012V4.51a3.134 3.134 0 0 1 2.682-3.094A37.6 37.6 0 0 1 9.5.999m5.694 14.947a3 3 0 0 1-.569.054H3.894C3.4 16 3 16.4 3 16.894c0 .445.319.816.74.883 1.812.291 3.938.495 6.314.473l1.002-.023a38 38 0 0 0 4.138-.382zM9.5 2.75a36 36 0 0 0-5.309.396A1.385 1.385 0 0 0 3 4.51v9.898c.28-.1.58-.158.894-.158h10.731c.76 0 1.375-.615 1.375-1.375V4.513c0-.68-.501-1.263-1.167-1.364a36 36 0 0 0-5.333-.4" clip-rule="evenodd" />
    </g>
</svg>
